X:1
T:Keep the Home Fires Burning
C:Ivor Novello
M:4/4
L:1/4
Q:1/4=100
K:F
% A section - 16 bars
|C D E F|G2 A G|F G A B|c4|
|c B A G|F2 G A|B c d c|B4|
|F G A B|c2 d c|B A G A|B4|
|c B A G|F G A F|G2 F E|F4|]
